X:1
T:I Would Not Die In Summertime
M:2/4
L:1/8
K:D
 D| F3/2 E/2 FA| B A3/2 d B/2| AB AF| E2 z D| F3/2 E/2 FA| BA dB/2-A/2|\
 F D3/2 F E/2| D2 z A| d3/2 e/2 dc| B A3/2 F D/2| ED EF| E2 z G| D3/2 C/2 DF|\
 GG dG/2-F/2| D C3/2 E D/2| D3 z|
